**kern	**kern	**dynam
*part1	*part1	*part1
*staff2	*staff1	*
*I"Piano	*	*
*clefF4	*clefG2	*
*k[b-e-a-d-]	*k[b-e-a-d-]	*
=1	=1	=1
4Dn	8a- 8b- 8ff	.
.	(8B-L	.
4r	8f	.
.	8a-	.
4r	8b-	.
.	8ffJ)	.
=	=	=
(8GGL	4ee-	.
8BB-	.	.
8E-	4r	.
8G	.	.
8B-	4r	.
8e-J)	.	.
=	=	=
2.AAn	8r	.
.	(8FL	.
.	8c	.
.	8e-	.
.	8f	.
.	8ffJ)	.
=	=	=
2.BBB- 2.BB-	8r	.
.	(8A-XL	.
.	8B-	.
.	8dn	.
.	8f	.
.	8b-J)	.
=	=	=
!	!LO:TX:b:i:t=cresc.	!
2.EE- 2.E-	8r	.
.	(8GL	.
.	8B-	.
.	8e-	.
.	8g	.
.	8ee-J)	.
=	=	=
2.AAA- 2.AA-	8r	f
.	(8F-XL	.
.	8c-X	.
.	8dn	.
.	8f-X	.
.	8ddnJ)	.
=	=	=
8r	2e- 2g 2b- 2ee-	.
(8EE-L	.	.
8BB-	.	.
8E-	.	.
8G	4r	.
8e-J)	.	.
=	=	=
*-	*-	*-
!!!system-decoration: {(s1,s2)}
